dist/img/clients/client_3.svg

<svg width="175" height="17" viewBox="0 0 175 17" fill="none" xmlns="http://www.w3.org/2000/svg">
<g clip-path="url(#clip0_2986_18197)">
<path fill-rule="evenodd" clip-rule="evenodd" d="M18.2869 0H19.0778C19.3913 0.0249245 19.6999 0.0747736 20.0109 0.124623C19.2077 1.28701 18.4069 2.4494 17.5962 3.60726C18.113 2.72584 18.6615 1.86255 19.1856 0.985654C18.0248 0.883691 16.8125 1.11707 15.8476 1.74019C15.3284 2.071 14.9782 2.56949 14.6305 3.04532C13.6607 4.42751 12.8109 5.87766 11.8656 7.27342C11.1897 8.27497 10.4893 9.26966 9.62717 10.1443C9.19859 10.559 8.73087 10.9782 8.13574 11.173C7.61408 11.3135 7.06798 11.3112 6.53166 11.3678C7.05087 11.2772 7.60923 11.2999 8.08678 11.0642C8.82394 10.6768 9.35288 10.0378 9.85251 9.4192C11.6329 7.09895 12.833 4.4547 14.4248 2.02795C12.544 0.827044 10.1243 0.380666 7.89572 0.858764C6.04676 1.23943 4.37654 2.24774 3.19857 3.61406C2.60102 3.54608 1.99367 3.62086 1.43774 3.82705C2.19448 2.78475 3.19122 1.88973 4.36675 1.25529C5.96349 0.380666 7.86636 0 9.71533 0.172206C11.4444 0.321753 13.1121 0.97206 14.4566 1.98717C15.2305 0.740942 16.7929 0.117825 18.2869 0Z" fill="#1D1D1D"/>
<path fill-rule="evenodd" clip-rule="evenodd" d="M0.663224 5.12254C0.00689512 6.59084 -0.17433 8.2404 0.173427 9.7993C0.50649 11.3922 1.38323 12.8764 2.61752 14.0251C4.91468 16.2638 8.6935 17.0183 11.8037 15.942C13.3123 15.4164 14.7155 14.5667 15.7098 13.3816C14.1768 14.0229 12.4429 14.2064 10.7825 13.9685C7.78245 13.5402 4.92203 11.8884 3.45263 9.39596C2.84773 8.34007 2.37018 7.08478 2.78405 5.8952C3.00936 5.32194 3.31304 4.6535 4.00121 4.44957C3.39876 4.24112 2.74977 4.09383 2.10324 4.18673C1.50323 4.26604 0.925271 4.60592 0.663224 5.12254Z" fill="#1D1D1D"/>
<path fill-rule="evenodd" clip-rule="evenodd" d="M17.455 5.50835C16.9603 5.56273 16.4485 5.67376 16.0493 5.96152C15.3635 6.43734 14.8052 7.04462 14.2615 7.65184C13.3652 8.68966 12.4199 9.68888 11.4795 10.6926C11.0313 11.1572 10.5292 11.6194 9.87536 11.8233C9.02553 12.0839 8.10721 12.0703 7.23535 11.9117C7.80105 12.2493 8.36676 12.5937 8.98148 12.8543C10.0835 12.9835 11.1953 12.6662 12.1162 12.1156C13.5317 11.3044 14.5677 10.0446 16.0076 9.26514C16.4778 8.98193 16.9922 8.74399 17.5554 8.67606C18.4125 7.6813 19.2256 6.65715 20.0338 5.6307C19.184 5.50155 18.3146 5.42224 17.455 5.50835Z" fill="#1D1D1D"/>
<path fill-rule="evenodd" clip-rule="evenodd" d="M17.5683 8.67856C18.4035 8.56076 19.2606 8.72616 20.0247 9.04337C19.072 10.2171 18.112 11.3931 17.0075 12.4512C16.0916 13.3463 14.7128 13.6635 13.4222 13.7088C11.9038 13.7428 10.3659 13.4618 8.99194 12.8568C10.094 12.986 11.2059 12.6688 12.1267 12.1182C13.5422 11.307 14.5781 10.0472 16.0181 9.26771C16.4908 8.98444 17.005 8.7443 17.5683 8.67856Z" fill="#1D1D1D"/>
<path fill-rule="evenodd" clip-rule="evenodd" d="M27.2149 1.70832C31.1583 1.70355 35.1043 1.70594 39.0477 1.70594C38.888 2.8496 38.7282 3.99565 38.5684 5.1417C37.2332 5.1417 35.8952 5.1417 34.56 5.1417C34.0914 8.31774 33.6229 11.4938 33.1543 14.6698C31.5321 14.6698 29.907 14.6698 28.282 14.6698C28.7505 11.4938 29.2191 8.31774 29.6876 5.1417C28.0409 5.13931 26.3943 5.14408 24.7476 5.13931C25.56 3.99326 26.397 2.85675 27.2149 1.70832ZM40.5238 1.71785C40.1067 5.08213 39.6924 8.44876 39.278 11.8131C39.1697 12.7685 38.9909 13.7192 38.8474 14.6698C40.4913 14.6698 42.1326 14.6698 43.7766 14.6698C43.9011 13.8573 44.0204 13.0425 44.1449 12.23C45.7267 12.2277 47.3083 12.2348 48.89 12.2253C50.3227 12.2062 51.7527 11.2579 51.9369 9.97127C52.2213 7.94367 52.5084 5.91605 52.7873 3.88604C52.9146 3.09739 52.3892 2.28491 51.5632 1.96326C51.1081 1.76312 50.5909 1.71547 50.0844 1.725C46.8993 1.72262 43.7116 1.72023 40.5238 1.71785ZM45.1849 5.14408C46.0408 5.14408 46.8967 5.14408 47.7525 5.14408C47.5792 6.22579 47.4112 7.3075 47.2379 8.38687C47.2271 8.59887 47.0348 8.79902 46.7829 8.78952C46.0624 8.80381 45.3447 8.78952 44.6243 8.79191C44.8139 7.57673 44.9899 6.35921 45.1849 5.14408ZM56.4518 2.41358C56.617 1.95612 57.1641 1.68926 57.6949 1.70594C60.035 1.70832 62.3777 1.70355 64.7178 1.70832C65.1673 1.68449 65.6519 1.94896 65.6605 2.37784C66.1802 6.47594 66.6947 10.5741 67.2119 14.6698C65.5464 14.6698 63.8808 14.6698 62.2152 14.6698C62.1259 13.9193 62.0391 13.1688 61.9498 12.4159C60.3681 12.4278 58.7837 12.4492 57.1993 12.4635C56.9122 13.1903 56.6522 13.9289 56.3516 14.6532C55.8018 14.6031 55.2466 14.6436 54.6967 14.6317C53.5918 14.6412 52.4894 14.6126 51.3871 14.646C53.0555 10.5622 54.7672 6.49024 56.4518 2.41358ZM60.1189 5.60631C59.6125 6.79523 59.106 7.98655 58.6023 9.17548C59.5827 9.17548 60.5631 9.17548 61.5435 9.17548C61.3973 7.98655 61.2429 6.79762 61.0939 5.60631C60.7689 5.60631 60.444 5.60631 60.1189 5.60631ZM70.373 1.70594C72.0142 1.70594 73.6528 1.70594 75.294 1.70594C75.0502 3.33089 74.8116 4.95823 74.571 6.58317C75.4972 6.58556 76.4233 6.58317 77.3494 6.58556C77.5959 4.95823 77.8318 3.33089 78.0756 1.70355C79.806 1.70594 81.5396 1.70117 83.2699 1.70594C82.6387 6.02565 82.0161 10.3477 81.3849 14.6675C79.6546 14.6675 77.9262 14.6675 76.1959 14.6675C76.4207 13.1307 76.6507 11.5939 76.8755 10.0571C75.9494 10.0571 75.0207 10.0571 74.0939 10.0571C73.8665 11.5939 73.639 13.1307 73.4142 14.6675C71.7756 14.6675 70.1344 14.6675 68.4932 14.6675C69.1192 10.3501 69.7471 6.02803 70.373 1.70594ZM98.8731 1.70594C100.512 1.70832 102.15 1.70594 103.789 1.70594C103.55 3.33327 103.306 4.95823 103.069 6.58556C103.995 6.58556 104.923 6.58556 105.85 6.58556C106.093 4.95823 106.329 3.33089 106.576 1.70355C108.306 1.70594 110.037 1.70355 111.767 1.70594C111.139 6.02803 110.514 10.3477 109.885 14.6698C108.155 14.6698 106.424 14.6698 104.693 14.6698C104.923 13.133 105.148 11.5962 105.376 10.0618C104.447 10.0618 103.521 10.0618 102.591 10.0618C102.364 11.5986 102.136 13.1354 101.909 14.6722C100.27 14.6722 98.6293 14.6722 96.9881 14.6722C97.6193 10.3501 98.2445 6.02565 98.8731 1.70594ZM147.954 1.70594C152.818 1.70594 157.68 1.70355 162.544 1.70594C161.753 2.85198 160.963 3.99803 160.174 5.1417C159.002 5.1417 157.829 5.1417 156.659 5.1417C156.185 8.31774 155.719 11.4938 155.251 14.6698C153.626 14.6722 152 14.6698 150.378 14.6698C150.844 11.4938 151.315 8.31774 151.781 5.1417C150.343 5.1417 148.91 5.1417 147.472 5.1417C147.632 3.99803 147.792 2.85198 147.954 1.70594ZM163.324 1.70594C162.693 6.0185 162.059 10.3287 161.453 14.6436C162.192 14.6126 162.934 14.6412 163.676 14.6317C166.211 14.646 168.749 14.6055 171.287 14.6532C172.321 14.5817 173.329 14.067 173.835 13.2593C174.155 12.7732 174.166 12.1967 174.255 11.6535C174.507 9.97127 174.732 8.28437 175 6.60464V6.20435C174.927 5.53244 174.431 4.92249 173.738 4.63896C173.074 4.33875 172.308 4.39831 171.591 4.39593C170.339 4.39593 169.091 4.39593 167.839 4.39593C167.977 3.50006 168.118 2.60419 168.256 1.70832C166.613 1.70594 164.968 1.70594 163.324 1.70594ZM166.84 11.246C167.013 10.1095 167.187 8.97299 167.36 7.83645C168.21 7.83645 169.061 7.83645 169.911 7.83645C169.743 8.83718 169.624 9.84503 169.405 10.8362C169.353 10.9887 169.321 11.2603 169.077 11.2388C168.332 11.2555 167.587 11.2412 166.84 11.246ZM84.3914 4.57939C84.0368 6.90485 83.7091 9.23265 83.3597 11.5605C83.2483 12.1538 83.2974 12.7852 83.6383 13.3165C84.1502 14.1647 85.2231 14.6555 86.2901 14.7223H92.2618C93.903 14.546 95.4793 13.5238 95.864 12.068C96.0266 11.2984 96.0836 10.5169 96.2055 9.74259C94.5695 9.74259 92.9362 9.74259 91.3029 9.74259C91.2301 10.1643 91.1567 10.586 91.0892 11.0078C90.1572 11.0125 89.2284 11.0054 88.2997 11.0125C88.5894 9.06353 88.9223 7.1193 89.2094 5.17029C90.1546 5.17981 91.0997 5.1822 92.0455 5.18935C91.9747 5.61107 91.9072 6.03518 91.8364 6.45932C93.4671 6.45932 95.0952 6.45932 96.7279 6.45932C96.8281 5.66111 96.9638 4.86293 97.053 4.06236C97.1152 3.481 96.8799 2.86628 96.3707 2.48267C95.6313 1.92037 94.6128 1.75836 93.6624 1.76074C91.8613 1.76789 90.0576 1.75121 88.2564 1.76789C86.4606 1.81792 84.6784 2.97588 84.3914 4.57939ZM113.414 1.76074C112.789 6.08045 112.161 10.4002 111.535 14.7199H123.565C123.725 13.5881 123.885 12.454 124.042 11.3223C121.67 11.3199 119.297 11.3223 116.924 11.3223C117.008 10.7837 117.095 10.2477 117.182 9.70922C119.549 9.70443 121.913 9.68775 124.278 9.68775C124.421 8.70848 124.565 7.73161 124.708 6.75235C122.341 6.75474 119.971 6.77382 117.604 6.77382C117.688 6.23532 117.775 5.69923 117.862 5.16075C120.232 5.16075 122.598 5.16075 124.968 5.16075C125.128 4.02662 125.288 2.89487 125.445 1.76074C121.436 1.76074 117.426 1.76074 113.414 1.76074ZM126.853 3.21176C127.395 2.30159 128.565 1.74882 129.722 1.76789C134.131 1.77027 138.537 1.7655 142.944 1.77027C143.737 1.7798 144.596 1.70355 145.311 2.07286C146.08 2.42549 146.524 3.21415 146.4 3.96467C146.123 5.96847 145.842 7.96987 145.563 9.97127C145.405 11.2674 143.981 12.242 142.543 12.2706C140.948 12.2801 139.353 12.2706 137.76 12.2729C137.638 13.0877 137.511 13.9026 137.391 14.7175H132.454C132.6 13.9026 132.717 13.083 132.849 12.2658C131.341 12.2658 129.832 12.2658 128.324 12.2658C127.858 12.2658 127.384 12.2134 126.964 12.0275C126.285 11.7464 125.767 11.1531 125.702 10.4883C125.662 10.0308 125.78 9.57813 125.838 9.1231C126.057 7.5958 126.279 6.06853 126.498 4.54127C126.558 4.09334 126.598 3.61919 126.853 3.21176ZM130.775 8.8324C131.623 8.8324 132.47 8.8324 133.318 8.8324C133.538 7.6196 133.722 6.40209 133.865 5.1822C133.009 5.1822 132.153 5.1822 131.301 5.1822C131.124 6.39969 130.949 7.61488 130.775 8.8324ZM138.24 8.83951C138.976 8.83479 139.712 8.84908 140.449 8.83479C140.685 8.84908 140.845 8.6561 140.848 8.46305C141.021 7.37184 141.192 6.28297 141.365 5.19411C140.506 5.19411 139.65 5.19411 138.795 5.19411C138.608 6.40687 138.424 7.62439 138.24 8.83951Z" fill="#1D1D1D"/>
</g>
<defs>
<clipPath id="clip0_2986_18197">
<rect width="175" height="17" fill="white"/>
</clipPath>
</defs>
</svg>

<svg width="175" height="17" viewBox="0 0 175 17" fill="none" xmlns="http://www.w3.org/2000/svg"><g clip-path="url(#clip0_2986_18197)" fill-rule="evenodd" clip-rule="evenodd" fill="#1D1D1D"><path d="M18.287 0h.79c.314.025.623.075.934.125-.803 1.162-1.604 2.324-2.415 3.482.517-.881 1.066-1.744 1.59-2.621-1.161-.102-2.373.131-3.338.754-.52.331-.87.83-1.218 1.305-.97 1.383-1.82 2.833-2.764 4.228-.676 1.002-1.377 1.997-2.239 2.871-.428.415-.896.834-1.491 1.029-.522.14-1.068.138-1.604.195.519-.09 1.077-.068 1.555-.304.737-.387 1.266-1.026 1.766-1.645 1.78-2.32 2.98-4.964 4.572-7.391-1.881-1.201-4.3-1.647-6.53-1.17A8.531 8.531 0 003.2 3.615a3.835 3.835 0 00-1.761.213 8.798 8.798 0 012.929-2.572C5.963.381 7.867 0 9.715.172c1.73.15 3.397.8 4.742 1.815C15.23.741 16.793.117 18.287 0z"/><path d="M.663 5.123a7.5 7.5 0 00-.49 4.676c.333 1.593 1.21 3.077 2.445 4.226 2.297 2.239 6.075 2.993 9.186 1.917 1.508-.526 2.912-1.375 3.906-2.56-1.533.64-3.267.824-4.928.587-3-.429-5.86-2.08-7.33-4.573-.604-1.056-1.082-2.311-.668-3.5.225-.574.529-1.242 1.217-1.446-.602-.209-1.251-.356-1.898-.263-.6.079-1.178.419-1.44.936z"/><path d="M17.455 5.508c-.495.055-1.006.166-1.406.454-.685.475-1.244 1.083-1.787 1.69-.897 1.038-1.842 2.037-2.783 3.04-.448.465-.95.927-1.604 1.131-.85.26-1.768.247-2.64.089.566.337 1.132.682 1.746.942 1.103.13 2.214-.188 3.135-.738 1.416-.812 2.452-2.071 3.892-2.85.47-.284.984-.522 1.547-.59a88.719 88.719 0 002.479-3.045c-.85-.13-1.72-.209-2.579-.123z"/><path d="M17.568 8.679c.835-.118 1.693.047 2.457.364-.953 1.174-1.913 2.35-3.017 3.408-.916.895-2.295 1.213-3.586 1.258-1.518.034-3.056-.247-4.43-.852 1.102.129 2.214-.188 3.135-.739 1.415-.811 2.451-2.07 3.891-2.85.473-.284.987-.524 1.55-.59zm9.647-6.971c3.943-.004 7.89-.002 11.833-.002l-.48 3.436H34.56l-1.406 9.528h-4.872l1.406-9.528c-1.647-.003-3.294.002-4.94-.003.812-1.146 1.649-2.282 2.467-3.43zm13.309.01c-.417 3.364-.832 6.73-1.246 10.095-.108.955-.287 1.906-.43 2.857h4.929c.124-.813.243-1.627.368-2.44 1.582-.002 3.163.005 4.745-.005 1.433-.019 2.863-.967 3.047-2.254.284-2.027.571-4.055.85-6.085.128-.789-.398-1.601-1.224-1.923-.455-.2-.972-.248-1.479-.238l-9.56-.007zm4.66 3.426h2.569c-.174 1.082-.342 2.163-.515 3.243a.438.438 0 01-.455.403c-.72.014-1.438 0-2.159.002.19-1.215.366-2.433.56-3.648zm11.268-2.73c.165-.458.712-.725 1.243-.708 2.34.002 4.683-.002 7.023.002.45-.024.934.241.942.67.52 4.098 1.035 8.196 1.552 12.292h-4.997c-.09-.75-.176-1.501-.265-2.254-1.582.012-3.166.033-4.75.047-.288.727-.548 1.466-.848 2.19-.55-.05-1.105-.01-1.655-.021-1.105.01-2.208-.02-3.31.014 1.669-4.084 3.38-8.156 5.065-12.232zm3.667 3.192c-.507 1.19-1.013 2.38-1.517 3.57h2.942c-.147-1.19-.301-2.378-.45-3.57h-.975zm10.254-3.9h4.921c-.244 1.625-.482 3.252-.723 4.877.926.003 1.852 0 2.778.003.247-1.628.483-3.255.727-4.882 1.73.002 3.464-.003 5.194.002-.631 4.32-1.254 8.642-1.885 12.962h-5.19c.226-1.537.456-3.074.68-4.61h-2.781c-.227 1.536-.455 3.073-.68 4.61h-4.92l1.879-12.962zm28.5 0c1.639.002 3.277 0 4.916 0-.239 1.627-.483 3.252-.72 4.88h2.781c.243-1.628.479-3.255.726-4.882 1.73.002 3.461 0 5.191.002-.628 4.322-1.253 8.642-1.882 12.964h-5.192c.23-1.537.455-3.074.683-4.608h-2.785l-.682 4.61h-4.92c.63-4.322 1.255-8.646 1.884-12.966zm49.081 0c4.864 0 9.726-.002 14.59 0l-2.37 3.436h-3.515c-.474 3.176-.94 6.352-1.408 9.528-1.625.002-3.251 0-4.873 0 .466-3.176.937-6.352 1.403-9.528h-4.309c.16-1.144.32-2.29.482-3.436zm15.37 0c-.631 4.313-1.265 8.623-1.871 12.938.739-.031 1.481-.003 2.223-.012 2.535.014 5.073-.027 7.611.021 1.034-.071 2.042-.586 2.548-1.394.32-.486.331-1.062.42-1.606.252-1.682.477-3.369.745-5.048v-.4c-.073-.673-.569-1.283-1.262-1.566-.664-.3-1.43-.24-2.147-.243h-3.752l.417-2.688c-1.643-.002-3.288-.002-4.932-.002zm3.516 9.54l.52-3.41h2.551c-.168 1.001-.287 2.009-.506 3-.052.153-.084.424-.328.403-.745.016-1.49.002-2.237.007zM84.391 4.579c-.354 2.326-.682 4.654-1.031 6.981-.112.594-.063 1.225.278 1.756.512.849 1.585 1.34 2.652 1.406h5.972c1.641-.176 3.217-1.198 3.602-2.654.163-.77.22-1.551.341-2.325h-4.902c-.073.421-.146.843-.214 1.265-.932.005-1.86-.003-2.79.005.29-1.95.623-3.894.91-5.843.946.01 1.89.012 2.837.02-.071.421-.139.845-.21 1.27h4.892c.1-.799.236-1.597.325-2.398a1.75 1.75 0 00-.682-1.58c-.74-.562-1.758-.724-2.709-.721-1.8.007-3.604-.01-5.406.007-1.795.05-3.578 1.208-3.865 2.811zm29.023-2.818c-.625 4.32-1.253 8.64-1.879 12.959h12.03c.16-1.132.32-2.266.477-3.398-2.372-.002-4.745 0-7.118 0 .084-.538.171-1.074.258-1.613 2.367-.005 4.731-.021 7.096-.021l.43-2.936c-2.367.003-4.737.022-7.104.022.084-.539.171-1.075.258-1.613h7.106c.16-1.134.32-2.266.477-3.4h-12.031zm13.439 1.45c.542-.91 1.712-1.462 2.869-1.443 4.409.002 8.815-.002 13.222.002.793.01 1.652-.066 2.367.303.769.352 1.213 1.141 1.089 1.892-.277 2.003-.558 4.005-.837 6.006-.158 1.296-1.582 2.271-3.02 2.3-1.595.01-3.19 0-4.783.002-.122.815-.249 1.63-.369 2.444h-4.937c.146-.814.263-1.634.395-2.451h-4.525c-.466 0-.94-.053-1.36-.239-.679-.28-1.197-.874-1.262-1.539-.04-.457.078-.91.136-1.365.219-1.527.441-3.054.66-4.582.06-.448.1-.922.355-1.33zm3.922 5.621h2.543c.22-1.212.404-2.43.547-3.65h-2.564c-.177 1.218-.352 2.433-.526 3.65zm7.465.008c.736-.005 1.472.01 2.209-.005a.377.377 0 00.399-.372l.517-3.269h-2.57c-.187 1.213-.371 2.43-.555 3.646z"/></g><defs><clipPath id="clip0_2986_18197"><path fill="#fff" d="M0 0h175v17H0z"/></clipPath></defs></svg>
